icons/Photo.svg

<?xml version="1.0" encoding="UTF-8"?>
<svg   viewBox="0 0 24 24" version="1.1" xmlns="http://www.w3.org/2000/svg" xmlns:xlink="http://www.w3.org/1999/xlink">
    <g id="🔍-Product-Icons" stroke="none" stroke-width="1" fill="none" fill-rule="evenodd">
        <g id="ic_fluent_image_24_regular" fill="#333" fill-rule="nonzero">
            <path d="M17.75,3 C19.5449254,3 21,4.45507456 21,6.25 L21,17.75 C21,19.5449254 19.5449254,21 17.75,21 L6.25,21 C4.45507456,21 3,19.5449254 3,17.75 L3,6.25 C3,4.45507456 4.45507456,3 6.25,3 L17.75,3 Z M18.330538,19.401407 L12.5246673,13.7148182 C12.259617,13.4552555 11.8501251,13.4316429 11.558795,13.6439914 L11.4752034,13.7147748 L5.66845098,19.4010512 C5.85040089,19.4651384 6.04612926,19.5 6.25,19.5 L17.75,19.5 C17.9534932,19.5 18.1488742,19.4652674 18.330538,19.401407 L12.5246673,13.7148182 L18.330538,19.401407 Z M17.75,4.5 L6.25,4.5 C5.28350169,4.5 4.5,5.28350169 4.5,6.25 L4.5,17.75 C4.5,17.9584012 4.53642824,18.1582941 4.60326447,18.3436585 L10.4257839,12.6429919 C11.2588664,11.8272921 12.5674613,11.7885018 13.4457696,12.5265833 L13.5741754,12.6431221 L19.396372,18.3446658 C19.4634397,18.1590183 19.5,17.9587787 19.5,17.75 L19.5,6.25 C19.5,5.28350169 18.7164983,4.5 17.75,4.5 Z M15.252115,6.5 C16.4959237,6.5 17.50423,7.50830622 17.50423,8.75211499 C17.50423,9.99592375 16.4959237,11.00423 15.252115,11.00423 C14.0083062,11.00423 13,9.99592375 13,8.75211499 C13,7.50830622 14.0083062,6.5 15.252115,6.5 Z M15.252115,8 C14.8367333,8 14.5,8.33673335 14.5,8.75211499 C14.5,9.16749662 14.8367333,9.50422997 15.252115,9.50422997 C15.6674966,9.50422997 16.00423,9.16749662 16.00423,8.75211499 C16.00423,8.33673335 15.6674966,8 15.252115,8 Z" id="🎨-Color"></path>
        </g>
    </g>
</svg>

<svg width="24" height="24" fill="none" viewBox="0 0 24 24" xmlns="http://www.w3.org/2000/svg"><path d="M17.75 3A3.25 3.25 0 0 1 21 6.25v11.5A3.25 3.25 0 0 1 17.75 21H6.25A3.25 3.25 0 0 1 3 17.75V6.25A3.25 3.25 0 0 1 6.25 3h11.5Zm.58 16.401-5.805-5.686a.75.75 0 0 0-.966-.071l-.084.07-5.807 5.687c.182.064.378.099.582.099h11.5c.203 0 .399-.035.58-.099l-5.805-5.686L18.33 19.4ZM17.75 4.5H6.25A1.75 1.75 0 0 0 4.5 6.25v11.5c0 .208.036.408.103.594l5.823-5.701a2.25 2.25 0 0 1 3.02-.116l.128.116 5.822 5.702c.067-.186.104-.386.104-.595V6.25a1.75 1.75 0 0 0-1.75-1.75Zm-2.498 2a2.252 2.252 0 1 1 0 4.504 2.252 2.252 0 0 1 0-4.504Zm0 1.5a.752.752 0 1 0 0 1.504.752.752 0 0 0 0-1.504Z" fill="#333"/></svg>
